icons/svg/webex-instant-meeting_12.svg

<svg width="12" height="12" viewBox="0 0 12 12" xmlns="http://www.w3.org/2000/svg"><title>meetings/webex-instant-meeting_12</title><path d="M11 10.5c0 .276-.224.5-.5.5l-9 0c-.276 0-.5-.224-.5-.5l0-9c0-.275.224-.5.5-.5l9 0c.276 0 .5.225.5.5l0 9zM10.5 0c.827 0 1.5.674 1.5 1.5l0 9c0 .826-.672 1.5-1.499 1.5l-9.002 0C.672 12 0 11.326 0 10.5l0-9C0 .674.673 0 1.5 0l9 0zM6 8c-.15 0-.294-.02-.435-.051 1.128-.641 1.906-1.806 2.006-3.172C7.835 5.116 8 5.537 8 6c0 1.104-.897 2-2 2zM4 6c0-1.103.897-2 2-2 .196 0 .381.037.56.09.018.131.04.26.04.395 0 1.333-.88 2.453-2.085 2.843C4.198 6.974 4 6.512 4 6zm3.424-2.625c-.368-.2-.78-.324-1.222-.354C6.134 3.016 6.069 3 6 3 4.343 3 3 4.344 3 6c0 .535.151 1.03.397 1.465.212.377.497.703.844.956C4.736 8.781 5.341 9 6 9c1.657 0 3-1.343 3-3 0-1.138-.642-2.116-1.576-2.625z" fill-rule="evenodd"/></svg>

<?xml version="1.0" encoding="UTF-8"?>
<svg width="12px" height="12px" viewBox="0 0 12 12" version="1.1" xmlns="http://www.w3.org/2000/svg" xmlns:xlink="http://www.w3.org/1999/xlink">
    <!-- Generator: Sketch 60.1 (88133) - https://sketch.com -->
    <title>meetings/webex-instant-meeting_12</title>
    <desc>Created with Sketch.</desc>
    <g id="meetings/webex-instant-meeting_12" stroke="none" stroke-width="1" fill="none" fill-rule="evenodd">
        <path d="M10.5,0 L1.5,0 C0.673,0 0,0.674 0,1.5 L0,10.5 C0,11.326 0.672,12 1.499,12 L10.501,12 C11.328,12 12,11.326 12,10.5 L12,1.5 C12,0.674 11.327,0 10.5,0 L10.5,0 Z M11,10.5 C11,10.776 10.776,11 10.5,11 L1.5,11 C1.224,11 1,10.776 1,10.5 L1,1.5 C1,1.225 1.224,1 1.5,1 L10.5,1 C10.776,1 11,1.225 11,1.5 L11,10.5 Z M7.424,3.375 C7.056,3.175 6.644,3.051 6.202,3.021 C6.134,3.016 6.069,3 6,3 C4.343,3 3,4.344 3,6 C3,6.535 3.151,7.03 3.397,7.465 C3.609,7.842 3.894,8.168 4.241,8.421 C4.736,8.781 5.341,9 6,9 C7.657,9 9,7.657 9,6 C9,4.862 8.358,3.884 7.424,3.375 M6,8 C5.85,8 5.706,7.98 5.565,7.949 C6.693,7.308 7.471,6.143 7.571,4.777 C7.835,5.116 8,5.537 8,6 C8,7.104 7.103,8 6,8 M4,6 C4,4.897 4.897,4 6,4 C6.196,4 6.381,4.037 6.56,4.09 C6.578,4.221 6.6,4.35 6.6,4.485 C6.6,5.818 5.72,6.938 4.515,7.328 C4.198,6.974 4,6.512 4,6" id="fill" fill="#171B1F"></path>
    </g>
</svg>
